svgs/duotone/mp3-player.svg

<svg xmlns="http://www.w3.org/2000/svg" viewBox="0 0 384 512"><!--! Font Awesome Pro 6.0.0 by @fontawesome - https://fontawesome.com License - https://fontawesome.com/license (Commercial License) Copyright 2022 Fonticons, Inc. --><defs><style>.fa-secondary{opacity:.4}</style></defs><path class="fa-primary" d="M64 64v128h256V64H64zM192 256c-53 0-96 43-96 96s43 96 96 96s96-43 96-96S245 256 192 256zM192 384c-17.62 0-32-14.38-32-32s14.38-32 32-32s32 14.38 32 32S209.6 384 192 384z"/><path class="fa-secondary" d="M336 0h-288C21.5 0 0 21.5 0 48v416C0 490.5 21.5 512 48 512h288c26.5 0 48-21.5 48-48v-416C384 21.5 362.5 0 336 0zM192 448c-53 0-96-43-96-96s43-96 96-96s96 43 96 96S245 448 192 448zM320 192H64V64h256V192z"/></svg>

<svg xmlns="http://www.w3.org/2000/svg" viewBox="0 0 384 512"><!-- Font Awesome Pro 5.15.3 by @fontawesome - https://fontawesome.com License - https://fontawesome.com/license (Commercial License) --><defs><style>.fa-secondary{opacity:.4}</style></defs><path d="M336 0H48A48 48 0 0 0 0 48v416a48 48 0 0 0 48 48h288a48 48 0 0 0 48-48V48a48 48 0 0 0-48-48zM192 448a96 96 0 1 1 96-96 96 96 0 0 1-96 96zm128-256H64V64h256z" class="fa-secondary"/><path d="M64 64v128h256V64zm128 192a96 96 0 1 0 96 96 96 96 0 0 0-96-96zm0 128a32 32 0 1 1 32-32 32 32 0 0 1-32 32z" class="fa-primary"/></svg>
